icon-themes/sifr_svg/cmd/lc_dataconsolidate.svg

<svg viewBox="0 0 24 24" xmlns="http://www.w3.org/2000/svg"><path d="m2 2v20h10v-20zm12 0v2h4v3h2v-3-2zm-10 3h2v2h-2zm4 0h2v2h-2zm-4 4h2v2h-2zm4 0h2v2h-2zm8 2v2h6v-2zm-12 2h2v2h-2zm4 0h2v2h-2zm-4 4h2v2h-2zm4 0h2v2h-2zm10 0v3h-4v2h6v-2-3z" fill="#555753"/></svg>

<svg xmlns="http://www.w3.org/2000/svg" viewBox="0 0 24 24">
  <path
     style="fill:#555753"
     d="M 2 2 L 2 22 L 12 22 L 12 2 L 2 2 z M 14 2 L 14 4 L 18 4 L 18 7 L 20 7 L 20 4 L 20 2 L 14 2 z M 4 5 L 6 5 L 6 7 L 4 7 L 4 5 z M 8 5 L 10 5 L 10 7 L 8 7 L 8 5 z M 4 9 L 6 9 L 6 11 L 4 11 L 4 9 z M 8 9 L 10 9 L 10 11 L 8 11 L 8 9 z M 16 11 L 16 13 L 22 13 L 22 11 L 16 11 z M 4 13 L 6 13 L 6 15 L 4 15 L 4 13 z M 8 13 L 10 13 L 10 15 L 8 15 L 8 13 z M 4 17 L 6 17 L 6 19 L 4 19 L 4 17 z M 8 17 L 10 17 L 10 19 L 8 19 L 8 17 z M 18 17 L 18 20 L 14 20 L 14 22 L 20 22 L 20 20 L 20 17 L 18 17 z "
     />
</svg>
